!!!OTL: Der Schutzengel.
!!!OTL-incipit: O ENGEL REIN
!!!ARE: Europa, Mitteleuropa, Deutschland, Niederrhein
!!!SCT: Z1122
!!!TXL: @@DE
!!!YEM: Copyright 1995, estate of Helmut Schaffrath.
**kern	**text
*ICvox	*
*M3/4	*
*k[f#]	*
*G:	*
=1	=1
!LO:TX:a:t=Vom Niederrhein.	!
{4g	O
4g	En-
4g	-gel
=2	=2
4.a	rein,
8g	.
4f#	Schutʒ-
=3	=3
(>4g	-en-
4f#)	.
4e	-gel
=4	=4
2d	mein,
4r}	.
=5	=5
{4g	du
4g	Gottes
4d	.
=6	=6
2g	E-
8aL	-del-
8bJ	.
=7	=7
8cc/L	-kna-
8bJ	.
4a	-be,
4r}	.
=8	=8
{8gL	laß
8aJ	.
4b/	mich
4cc/	dir
=9	=9
(>4.dd/	an-
8cc)	.
4b/	-be-
=10	=10
(>4cc/	-foh-
4b/)	.
4a	-len
=11	=11
2b/	ſeyn,
4r}	.
=12	=12
{8gL	ſo
8f#J	.
8eL	lang'
8f#J	.
4g	ich
=13	=13
(>4.a	O-
8b/)	.
8gL	-dem
8f#J	.
=14	=14
8eL	ha-
8f#J	.
4g	-be.
4r}	.
==	==
!!!AGN: religioeses Lied
!!!ONB: ESAC (Essen Associative Code) Database: ZUCCAL
!!!AMT: simple triple
!!!AIN: vox
!!!EED: Helmut Schaffrath
!!!EEV: 1.0
!!!GTL: III. Haus- Andacht.
!!!URL-scan: https://www.digitale-sammlungen.de/de/view/bsb11160573?page=266
!!!ENC: Anna Maria Matuszewska
!!!EEV: 2025/02/04
*-	*-
